X:202
T:Reel \`a Jules Verret
S:Yann Falquet
Z:robin.beech@mcgill.ca
R:reel
M:4/4
L:1/8
K:D
fdAd fdAd | gdBd gdBd | Adfd ceec | defd A3B | AFAd |
fdAd fdAd | gdBd gdBd | Adfd ceec |1 dfec d3B | AFAd :|2 dfec d3B |:
ea2a g2f2 | ea2f ecAc | ea2a g2fg | afge fdcd |
ea2a g2f2 | ea2f ecAc | ea2a g2fg | afge fdcd |
ea2a g2f2 | ea2f ecAc | ea2a g2fg | afge fdcd |]

